Adwaita++/apps/scalable/AdobeLightroom.svg

<svg height="128" width="128" xmlns="http://www.w3.org/2000/svg" xmlns:xlink="http://www.w3.org/1999/xlink">
  <linearGradient id="e" gradientTransform="matrix(1.0015 0 0 .99993 72.09 56.015)" gradientUnits="userSpaceOnUse" x1="43.844" x2="-60" y1="234" y2="234">
    <stop offset="0" stop-color="#d5d3cf"/>
    <stop offset=".038" stop-color="#e3e2df"/>
    <stop offset=".077" stop-color="#c0bfbc"/>
    <stop offset=".923" stop-color="#c0bfbc"/>
    <stop offset=".962" stop-color="#e3e2df"/>
    <stop offset="1" stop-color="#d5d3cf"/>
  </linearGradient>
  <g transform="translate(0 -172)">
    <rect fill="url(#e)" height="48" rx="8" width="104" x="12" y="240"/>
    <path d="m20 10c-4.432 0-8 3.568-8 8v42 42c0 4.432 3.568 8 8 8h44 44c4.432 0 8-3.568 8-8v-42-42c0-4.432-3.568-8-8-8z" fill="#022326" transform="translate(0 172)"/>
    <path d="m-93.43 272.13h96v2.5h-96z" fill="none"/>
    <g fill="#ccfbff">
      <path d="m21.691406 181.8457c-1.212672 0-2.433032.003-3.664062.31641-1.565504.39892-2.781079 1.24397-3.660156 2.13672-.963889.97887-1.825941 2.30933-2.201172 3.95898-.286848 1.2611-.166016 2.30103-.166016 3.28125v40.38477 40.38476c0 .71603-.04245 1.78112.117188 2.86133.221271 1.49722.797024 2.86719 1.716796 3.96094.90846 1.08029 2.117498 1.99735 3.605469 2.49023 1.658705.54945 3.093859.37891 4.251953.37891h42.308594 42.30859c.91999 0 2.09301.11639 3.45508-.18164 1.63229-.35724 3.12075-1.19192 4.21875-2.43945.87624-.99558 1.53755-2.26478 1.8418-3.71875.28181-1.34669.17578-2.52722.17578-3.35157v-40.38476-40.38477c0-.88745.17071-2.24297-.35156-3.90234-.4269-1.35639-1.49808-3.48733-3.92578-4.75195-1.86748-.97279-3.93912-1.03907-5.41407-1.03907zm0 4h84.617184c1.08984 0 3.02337.30502 3.56641.58789 1.19087.62034 1.75224 1.74739 1.95898 2.4043.25909.82317.16602 1.48048.16602 2.70117v40.38477 40.38476c0 1.0294.0358 1.92126-.0918 2.53125-.14937.71385-.55324 1.46878-.92968 1.89649-.47122.53538-1.24401.99298-2.07032 1.17383-.59015.12913-1.47677.0898-2.59961.0898h-42.30859-42.308594c-1.387913 0-2.309645.049-2.99414-.17773-.531845-.17618-1.404779-.79472-1.800782-1.26563-.428011-.50897-.688757-1.06732-.822265-1.9707-.077382-.52357-.074219-1.47844-.074219-2.27731v-40.38476-40.38477c0-1.168-.0313-1.96498.06641-2.39453.180215-.79229.632349-1.51297 1.150391-2.03906.525868-.53405.998168-.86434 1.798828-1.06836.533917-.13603 1.527954-.19141 2.675781-.19141z"/>
      <path clip-rule="evenodd" d="m38.682974 256.95473c-.54348 0-.679348-.22634-.679348-.67937v-48.68656c0-.36232.135874-.5888.543477-.5888h7.155796c.36232 0 .452898.13587.452898.54349v41.93839h18.659419c.362317 0 .498188.13587.40761.5435l-1.13225 6.43115c-.09058.36232-.317027.54347-.679347.54347h-24.728255zm33.967386-29.34783c0-.54349 0-1.8569-.226446-4.39311 0-.36232.09057-.45292.362317-.5888 2.762683-1.13223 9.329713-3.12497 16.666673-3.12497.362309 0 .54347.0905.54347.45289v6.52173c0 .36232-.135874.45289-.54347.45289-2.853272-.13587-7.065221.22634-8.650369.90582v28.57788c0 .36232-.135874.5435-.54348.5435h-7.1105c-.362324 0-.543481-.13588-.543481-.5435v-28.80433z" fill-rule="evenodd"/>
    </g>
  </g>
</svg>

<svg xmlns="http://www.w3.org/2000/svg" xmlns:xlink="http://www.w3.org/1999/xlink" width="128" height="128" version="1.0">
 <defs>
  <linearGradient id="a">
   <stop id="stop2" offset="0" stop-color="#68676b"/>
   <stop id="stop4" offset=".8" stop-color="#424048"/>
   <stop id="stop6" offset="1" stop-color="#241f31"/>
  </linearGradient>
  <radialGradient id="d" cx="279.422" cy="446.483" r="224" fx="279.422" fy="446.483" gradientTransform="matrix(1.34416 .0006 -.00062 1.38763 -121.22 -718.103)" gradientUnits="userSpaceOnUse" xlink:href="#a"/>
  <linearGradient id="e" x1="43.844" x2="-60" y1="234" y2="234" gradientTransform="matrix(1.0015 0 0 .99993 72.09 56.015)" gradientUnits="userSpaceOnUse" xlink:href="#b"/>
  <linearGradient id="b">
   <stop id="stop11" offset="0" stop-color="#d5d3cf"/>
   <stop id="stop13" offset=".038" stop-color="#e3e2df"/>
   <stop id="stop15" offset=".077" stop-color="#c0bfbc"/>
   <stop id="stop17" offset=".923" stop-color="#c0bfbc"/>
   <stop id="stop19" offset=".962" stop-color="#e3e2df"/>
   <stop id="stop21" offset="1" stop-color="#d5d3cf"/>
  </linearGradient>
 </defs>
 <g transform="translate(0 -172)">
  <rect fill="url(#e)" width="104" height="48" x="12" y="240" rx="8" ry="8"/>
  <path style="fill:#022326" d="M 20 10 C 15.568 10 12 13.568 12 18 L 12 60 L 12 102 C 12 106.432 15.568 110 20 110 L 64 110 L 108 110 C 112.432 110 116 106.432 116 102 L 116 60 L 116 18 C 116 13.568 112.432 10 108 10 L 20 10 z" transform="translate(0,172)"/>
  <rect style="fill:#0000ff;fill-opacity:0" width="96" height="2.5" x="-93.43" y="272.13"/>
  <path style="fill:#ccfbff" d="m 21.691406,181.8457 c -1.212672,0 -2.433032,0.003 -3.664062,0.31641 -1.565504,0.39892 -2.781079,1.24397 -3.660156,2.13672 -0.963889,0.97887 -1.825941,2.30933 -2.201172,3.95898 C 11.879168,189.51891 12,190.55884 12,191.53906 v 40.38477 40.38476 c 0,0.71603 -0.04245,1.78112 0.117188,2.86133 0.221271,1.49722 0.797024,2.86719 1.716796,3.96094 0.90846,1.08029 2.117498,1.99735 3.605469,2.49023 C 19.098158,282.17054 20.533312,282 21.691406,282 H 64 106.30859 c 0.91999,0 2.09301,0.11639 3.45508,-0.18164 1.63229,-0.35724 3.12075,-1.19192 4.21875,-2.43945 0.87624,-0.99558 1.53755,-2.26478 1.8418,-3.71875 C 116.10603,274.31347 116,273.13294 116,272.30859 v -40.38476 -40.38477 c 0,-0.88745 0.17071,-2.24297 -0.35156,-3.90234 -0.4269,-1.35639 -1.49808,-3.48733 -3.92578,-4.75195 -1.86748,-0.97279 -3.93912,-1.03907 -5.41407,-1.03907 z m 0,4 h 84.617184 c 1.08984,0 3.02337,0.30502 3.56641,0.58789 1.19087,0.62034 1.75224,1.74739 1.95898,2.4043 0.25909,0.82317 0.16602,1.48048 0.16602,2.70117 v 40.38477 40.38476 c 0,1.0294 0.0358,1.92126 -0.0918,2.53125 -0.14937,0.71385 -0.55324,1.46878 -0.92968,1.89649 -0.47122,0.53538 -1.24401,0.99298 -2.07032,1.17383 -0.59015,0.12913 -1.47677,0.0898 -2.59961,0.0898 H 64 21.691406 c -1.387913,0 -2.309645,0.049 -2.99414,-0.17773 -0.531845,-0.17618 -1.404779,-0.79472 -1.800782,-1.26563 -0.428011,-0.50897 -0.688757,-1.06732 -0.822265,-1.9707 C 15.996837,274.06233 16,273.10746 16,272.30859 v -40.38476 -40.38477 c 0,-1.168 -0.0313,-1.96498 0.06641,-2.39453 0.180215,-0.79229 0.632349,-1.51297 1.150391,-2.03906 0.525868,-0.53405 0.998168,-0.86434 1.798828,-1.06836 0.533917,-0.13603 1.527954,-0.19141 2.675781,-0.19141 z"/>
  <path class="st2" d="m 38.682974,256.95473 c -0.54348,0 -0.679348,-0.22634 -0.679348,-0.67937 V 207.5888 c 0,-0.36232 0.135874,-0.5888 0.543477,-0.5888 h 7.155796 c 0.36232,0 0.452898,0.13587 0.452898,0.54349 v 41.93839 h 18.659419 c 0.362317,0 0.498188,0.13587 0.40761,0.5435 l -1.13225,6.43115 C 63.999996,256.81885 63.773549,257 63.411229,257 H 38.682974 Z M 72.65036,227.6069 c 0,-0.54349 0,-1.8569 -0.226446,-4.39311 0,-0.36232 0.09057,-0.45292 0.362317,-0.5888 2.762683,-1.13223 9.329713,-3.12497 16.666673,-3.12497 0.362309,0 0.54347,0.0905 0.54347,0.45289 v 6.52173 c 0,0.36232 -0.135874,0.45289 -0.54347,0.45289 -2.853272,-0.13587 -7.065221,0.22634 -8.650369,0.90582 v 28.57788 c 0,0.36232 -0.135874,0.5435 -0.54348,0.5435 h -7.1105 c -0.362324,0 -0.543481,-0.13588 -0.543481,-0.5435 V 227.6069 Z" style="clip-rule:evenodd;fill:#ccfbff;fill-rule:evenodd"/>
 </g>
</svg>
